public/images/logo.svg

<svg xmlns="http://www.w3.org/2000/svg" width="1943.01" height="561.989" preserveAspectRatio="none" viewBox="0 -842.32 1943.005 561.989"><path fill="#3d9fe2" d="M1433.56-687.52c5.59-.42 31.8.81 31.97 8.87 2.01 93.51.35 187.45 1.05 281.08.05 7.96-3.63 20.73-11.97 23.87-19.81 6.65-61.3 8.14-73.02-13.99-39.97-75.41-84.73-150.7-118.77-229.01-1.15 20.72 1.88 42.02 1.95 62.83.16 55.49.34 110.99.21 166.49-.02 6.28.16 10.47-4.58 14.96-12.02 4.59-42.08 6.19-51.78-3.27-3.28-15.35-2.86-288.46-.03-296.34 1.87-5.23 6.79-9.37 11.73-11.64 13.39-6.17 50.07-5.05 63.74.09 5.99 2.25 10.61 5.41 14.42 10.58 2.81 3.81 4.71 8.2 7.09 12.27 9.94 17.05 18.31 34.75 27.51 52.21 26.23 49.83 53.39 99.13 76.51 150.51.83-20.84-1.1-41.8-1.06-62.72.07-50.67-.73-101.54.14-152.2.23-13.4 14.62-13.78 24.89-14.59"/><path d="M1584.27-380.43c6.358.28 15.958-.241 26.312-.272 12.219-.036 25.488.61 35.722 4.06 7.211 2.431 12.916 6.253 15.685 12.208 2.217 4.77 2.552 10.907.271 18.794-2.61 9-10.58 14.27-18.73 18.1-15.151 4.747-33.498 5.75-48.667 2.935-13.266-2.461-24.101-7.842-28.24-16.192-2.71-5.468-2.55-12.209 1.68-20.236Zm-6.489-224.194a92 92 0 0 0-14.293 5.943c-9.452 4.912-17.699 11.367-24.354 19.102a74.5 74.5 0 0 0-16.105 31.566c-2.229 9.391-2.779 19.587-1.359 30.393 2.12 16 8.18 27.03 18.92 38.8-27.71 24.68-38.14 62.54-1.58 84.69-15.47 12.18-29.47 25.85-31.77 46.27-5.23 46.77 40.44 62.7 78.36 66.29 37.85 3.59 81.43.44 112.61-23.71 6.51-5.23 13.95-13.13 17.74-20.61 5.26-10.59 6.838-17.576 6.535-26.925-.264-8.154-3.905-15.535-7.005-22.875-17.74-42.08-68.02-42.27-106.56-41.48-11.29.23-30.68.11-37.22-10.2-5.36-8.68-1.21-19.22 5.2-25.94 25.65 11.1 72.542-2.682 88.2-14.55 13.574-11.952 23.698-28.134 27.141-45.74 2.376-12.149 1.57-24.976-3.481-37.56-1.13-2.72-2.37-5.4-3.71-8.02 8.51.01 19.84 2.09 26.44-2.98 8.09-6.22 6.44-36.54.05-40.64-7.15-4.58-51.81-2.37-61.38-2.92-15.68-.9-36.205-5.16-54.14-2.93-12.216 1.519-18.239 4.026-18.239 4.026m27.379 36.724c9.644-.882 20.405.844 28.322 6.472 7.919 5.628 13.688 14.282 15.428 24.618 1.74 10.341-.883 20.406-6.527 28.316s-14.309 13.664-24.653 15.384c-11.63 1.94-22.91-1.645-31.158-8.842a37.78 37.78 0 0 1-12.452-22.278c-1.796-10.64 1.036-20.996 7.032-29.008a38 38 0 0 1 10.589-9.649s3.424-4.099 13.419-5.013" style="fill:#3d9fe2"/><path fill="#3d9fe2" d="m1843.4-677.34.24.2c26.49 45.42 71.96 114.53 90.54 160.75 28.35 70.48-14.3 143.66-89.37 146.94-18.33-.47-32.94-3.5-49.18-12.74a103 103 0 0 1-48.18-62.13 106.65 106.65 0 0 1-1.47-48.65c4.906-24.074 20.555-55.483 38.678-87.1Zm22.18 67.88c17.16 31.72 39.11 82.82 45.2 117.86 6.25 36.02-.37 63.95-21.51 93.56 77.4-56.91 12.85-152.45-22.33-213.64Z"/><path d="M534.845-567.58c7.481-.098 16.08 1.388 22.052 4.179 5.957 2.784 10.616 6.859 14.193 11.926 3.546 5.023 6.028 11.02 7.66 17.701 1.631 6.678 2.412 14.04 2.553 21.794l-23.85.016-21.045.014-26.968-.011-20.975-.009c1.079-8.341 2.482-16.027 4.628-22.86 2.068-6.58 4.825-12.369 8.648-17.188 4.107-5.177 9.443-9.235 16.474-11.956 0 0 10.958-3.532 16.63-3.606m-40.133-34.602c-15.349 5.688-27.837 14.383-37.725 25.354-6.057 6.72-11.137 14.294-15.302 22.554-4.52 8.966-7.961 18.74-10.399 29.107-3.853 16.384-5.199 34.25-4.34 52.747 3.631 78.12 56.564 112.12 130.78 106.33 18.912-1.64 51.689-5.04 66.991-17.55 8.441-6.9 9.437-33.724-1.214-43.64-.026-.024-.314.04-.314.04-8.594 1.05-24.381 9.18-33.495 11.45-21.754 5.42-61.358 8.28-80.237-5.24-11.22-8.03-19.833-27.99-21.453-41.47-.262-2.18-.173-3.61.685-5.65.689-.663 3.001-1.338 6.61-1.391 22.408-.327 84.652.887 127.533-.069 4.918-.11 10.587-5.781 12.747-7.771.661-.62 1.284-1.596 1.525-2.189 10.113-24.884 1.386-59.13-8.603-80.12-8.787-18.465-21.964-30.934-37.692-38.789-17.355-8.668-37.817-11.719-58.918-11.011 0 0-14.063.799-20.934 2.225-5.556 1.153-16.245 5.083-16.245 5.083" style="fill:#293f76"/><path fill="#293f76" d="M777.133-609.48c46.122-.063 101.871 19.78 100.04 89.73-.441 45.8.356 91.62-.116 137.4-.161 15.54-20.688 13.5-31.698 13.24-21.805-.51-18.439-8.77-18.117-26.25-34.757 39.98-109.564 42.37-139.317-5.04-16.004-24.61-11.198-68.17 13.132-86.44 33.701-25.31 76.563-23.98 116.287-24.01-.004-32.8-1.861-54.67-42.329-53.79-15.948.35-27.926 3.14-42.9 8.88-8.475 3.24-23.095 12.13-31.57 12.85-12.015-3.95-12.012-35.24-4.37-41.85 0 0 52.742-24.681 80.958-24.72m-26.045 148.333c-7.052 5.684-13.123 15.228-13.202 23.75-.076 8.227 3.652 16.273 10.539 21.984 6.042 5.01 16.22 8.265 24.983 8.183 8.917-.084 18.563-4.61 25.261-8.803 6.096-3.816 11.573-9.09 18.633-16.957-.01-6.365-.072-12.875-.101-19.38-.028-6.515-.023-13.025.101-19.38-9.68-.04-21.296-1.38-31.767.2-11.86 1.79-25.108 2.876-34.447 10.403M208.667-814.62c5.191 1.81 14.135 8.45 14.135 8.45s-42.115 65.9-60.673 98.97c-2.422 4.31-10.647 20.348-10.647 20.348s9.008-3.409 19.829-4.433c9.432-.893 20.423.54 25.699 1.015 9.98.94 19.848 2.83 29.473 5.63 13.34 3.95 34.468 11.68 41.359 24.63 5.793 12.31 3.554 29.72 1.054 42.67-.927 4.32-6.144 7.64-10.413 5.43-12.882-6.81-23.871-15.62-37.794-20.59-42.545-15.18-89.042 1.6-103.573 46.7-12.167 39.03-13.424 89.15 3.749 126.71 14.845 32.46 48.325 43.23 81.379 39.39 17.274-2.01 26.669-5.7 41.713-13.29 6.092-4.15 15.248-11.2 23.028-8.63 8.407 6.31 6.468 39.11-.041 47.53-11.161 14.43-36.037 22.32-53.576 25.35-38.558 6.65-82.814 3.1-115.671-19.87-49.148-32.79-63.77-103.4-54.685-158.49.895-5.43 22.908-39.01 27.516-46.35l47.078-75.47 57.358-92.21c10.731-17.33 33.703-53.49 33.703-53.49m856.053 205.08c51.95-1.54 77.45 32.37 80.51 80.88 1.16 23.86.7 47.85.76 71.76-.13 25.66.31 51.22-.3 76.89-.31 13.88-34.39 10.78-43.78 10.31-8.38-.42-17.05-3.39-17.09-13.4-.16-40.91.35-81.9.19-122.83-.09-23.21-7.06-52.79-36.05-51.03-19.25.96-27.89 9.89-40.36 23.11l-8.09 8.94-.08 99.52c.02 13.37 1.17 27.01.5 40.27-.69 14.09-10.945 15.72-22.385 15.64-11.567-.07-27.307 2.55-36.662-5.96-1.907-1.74-1.789-13.94-2.003-16.94.141-67.92-.469-135.93.236-203.82.15-14.39 49.009-14.31 50.739-.46.62 4.95-.09 20.3-.18 25.87 22.125-21.21 41.465-37.83 74.045-38.75M339.254-709.59c8.878-1.36 28.64-.2 34.977 7.71 1.523 1.9 2.166 12.77 2.18 15.88.269 59.49.113 118.98.078 178.46l.079 78.41c.016 14.8.269 29.92-.372 44.68-.355 3.27-.058 7.57-2.793 9.91-5.238 4.48-14.191 4.54-20.817 5.13-11.796 1.76-30.778 1.49-37.639-9.73l-.019-213.16-.038-68.49c-.001-11.47-.324-23.35.225-34.77.566-11.8 15.572-13.15 24.139-14.03m-172.513-127.9c5.914-.12 26.135 18.15 26.135 18.15s-18.453 31-26.71 44.35l-47.419 76.53-59.168 95.81c-5.305 8.56-27.802 46.91-33.969 51.27-6.229-1.03-23.849-11.73-25.61-18.29 1.838-6.59 23.763-39.74 29.108-47.98 46.853-72.23 137.633-219.84 137.633-219.84"/><path fill="#57caf8" d="M277.113-842.32c2.757 7.51 4.179 13.68 8.497 20.54 6.881 4.69 11.945 6.51 19.604 9.65-20.875 8.12-21.211 8.53-28.238 29.83-7.305-21.66-8.005-23.04-29.762-29.98 22.006-7.33 22.017-8.34 29.899-30.04m-41.019 83.93c1.367 1.57 3.189 8.06 4.639 10.99 4.72 9.52 10.542 10.19 20.014 13.18-7.002 2.51-10.051 3.7-16.727 7.33-4.336 5.93-5.412 10.3-7.468 17.16-1.387-1.44-3.599-8.14-4.847-10.68-4.638-9.49-9.613-10.28-18.92-13.35 16.683-7.31 17.165-7.21 23.309-24.63"/></svg>

<?xml version="1.0" encoding="utf-8"?>
<svg xmlns="http://www.w3.org/2000/svg" viewBox="0 -842.32 1943.0051 561.9893" width="1943.01px" height="561.989px" preserveAspectRatio="none"><g id="object-0"><path fill="rgb(61,159,226)" d="M 1433.56 -687.52 C 1439.15 -687.94 1465.36 -686.71 1465.53 -678.65 C 1467.54 -585.14 1465.88 -491.2 1466.58 -397.57 C 1466.63 -389.61 1462.95 -376.84 1454.61 -373.7 C 1434.8 -367.05 1393.31 -365.56 1381.59 -387.69 C 1341.62 -463.1 1296.86 -538.39 1262.82 -616.7 C 1261.67 -595.98 1264.7 -574.68 1264.77 -553.87 C 1264.93 -498.38 1265.11 -442.88 1264.98 -387.38 C 1264.96 -381.1 1265.14 -376.91 1260.4 -372.42 C 1248.38 -367.83 1218.32 -366.23 1208.62 -375.69 C 1205.34 -391.04 1205.76 -664.15 1208.59 -672.03 C 1210.46 -677.26 1215.38 -681.4 1220.32 -683.67 C 1233.71 -689.84 1270.39 -688.72 1284.06 -683.58 C 1290.05 -681.33 1294.67 -678.17 1298.48 -673 C 1301.29 -669.19 1303.19 -664.8 1305.57 -660.73 C 1315.51 -643.68 1323.88 -625.98 1333.08 -608.52 C 1359.31 -558.69 1386.47 -509.39 1409.59 -458.01 C 1410.42 -478.85 1408.49 -499.81 1408.53 -520.73 C 1408.6 -571.4 1407.8 -622.27 1408.67 -672.93 C 1408.9 -686.33 1423.29 -686.71 1433.56 -687.52"/><path d="M 1584.27 -380.43 C 1590.628 -380.15 1600.228 -380.671 1610.582 -380.702 C 1622.801 -380.738 1636.07 -380.092 1646.304 -376.642 C 1653.515 -374.211 1659.22 -370.389 1661.989 -364.434 C 1664.206 -359.664 1664.541 -353.527 1662.26 -345.64 C 1659.65 -336.64 1651.68 -331.37 1643.53 -327.54 C 1628.379 -322.793 1610.032 -321.79 1594.863 -324.605 C 1581.597 -327.066 1570.762 -332.447 1566.623 -340.797 C 1563.913 -346.265 1564.073 -353.006 1568.303 -361.033 Z M 1577.781 -604.624 C 1572.771 -603.013 1567.993 -601.022 1563.488 -598.681 C 1554.036 -593.769 1545.789 -587.314 1539.134 -579.579 C 1531.438 -570.635 1525.87 -559.978 1523.029 -548.013 C 1520.8 -538.622 1520.25 -528.426 1521.67 -517.62 C 1523.79 -501.62 1529.85 -490.59 1540.59 -478.82 C 1512.88 -454.14 1502.45 -416.28 1539.01 -394.13 C 1523.54 -381.95 1509.54 -368.28 1507.24 -347.86 C 1502.01 -301.09 1547.68 -285.16 1585.6 -281.57 C 1623.45 -277.98 1667.03 -281.13 1698.21 -305.28 C 1704.72 -310.51 1712.16 -318.41 1715.95 -325.89 C 1721.21 -336.48 1722.788 -343.466 1722.485 -352.815 C 1722.221 -360.969 1718.58 -368.35 1715.48 -375.69 C 1697.74 -417.77 1647.46 -417.96 1608.92 -417.17 C 1597.63 -416.94 1578.24 -417.06 1571.7 -427.37 C 1566.34 -436.05 1570.49 -446.59 1576.9 -453.31 C 1602.55 -442.21 1649.442 -455.992 1665.1 -467.86 C 1678.674 -479.812 1688.798 -495.994 1692.241 -513.6 C 1694.617 -525.749 1693.811 -538.576 1688.76 -551.16 C 1687.63 -553.88 1686.39 -556.56 1685.05 -559.18 C 1693.56 -559.17 1704.89 -557.09 1711.49 -562.16 C 1719.58 -568.38 1717.93 -598.7 1711.54 -602.8 C 1704.39 -607.38 1659.73 -605.17 1650.16 -605.72 C 1634.48 -606.62 1613.955 -610.88 1596.02 -608.65 C 1583.804 -607.131 1577.781 -604.624 1577.781 -604.624 Z M 1605.16 -567.9 C 1614.804 -568.782 1625.565 -567.056 1633.482 -561.428 C 1641.401 -555.8 1647.17 -547.146 1648.91 -536.81 C 1650.65 -526.469 1648.027 -516.404 1642.383 -508.494 C 1636.739 -500.584 1628.074 -494.83 1617.73 -493.11 C 1606.1 -491.17 1594.82 -494.755 1586.572 -501.952 C 1580.196 -507.515 1575.633 -515.236 1574.12 -524.23 C 1572.324 -534.87 1575.156 -545.226 1581.152 -553.238 C 1584.014 -557.063 1587.597 -560.354 1591.741 -562.887 C 1591.741 -562.887 1595.165 -566.986 1605.16 -567.9 Z" style="fill: rgb(61, 159, 226);"/><path fill="rgb(61,159,226)" d="M 1843.4 -677.34 L 1843.64 -677.14 C 1870.13 -631.72 1915.6 -562.61 1934.18 -516.39 C 1962.53 -445.91 1919.88 -372.73 1844.81 -369.45 C 1826.48 -369.92 1811.87 -372.95 1795.63 -382.19 C 1771.98 -395.72 1754.66 -418.06 1747.45 -444.32 C 1743.22 -460.21 1742.71 -476.86 1745.98 -492.97 C 1750.886 -517.044 1766.535 -548.453 1784.658 -580.07 Z M 1865.58 -609.46 C 1882.74 -577.74 1904.69 -526.64 1910.78 -491.6 C 1917.03 -455.58 1910.41 -427.65 1889.27 -398.04 C 1966.67 -454.95 1902.12 -550.49 1866.94 -611.68 Z"/><path d="M 534.845 -567.58 C 542.326 -567.678 550.925 -566.192 556.897 -563.401 C 562.854 -560.617 567.513 -556.542 571.09 -551.475 C 574.636 -546.452 577.118 -540.455 578.75 -533.774 C 580.381 -527.096 581.162 -519.734 581.303 -511.98 L 557.453 -511.964 L 536.408 -511.95 L 509.44 -511.961 L 488.465 -511.97 C 489.544 -520.311 490.947 -527.997 493.093 -534.83 C 495.161 -541.41 497.918 -547.199 501.741 -552.018 C 505.848 -557.195 511.184 -561.253 518.215 -563.974 C 518.215 -563.974 529.173 -567.506 534.845 -567.58 Z M 494.712 -602.182 C 479.363 -596.494 466.875 -587.799 456.987 -576.828 C 450.93 -570.108 445.85 -562.534 441.685 -554.274 C 437.165 -545.308 433.724 -535.534 431.286 -525.167 C 427.433 -508.783 426.087 -490.917 426.946 -472.42 C 430.577 -394.3 483.51 -360.3 557.726 -366.09 C 576.638 -367.73 609.415 -371.13 624.717 -383.64 C 633.158 -390.54 634.154 -417.364 623.503 -427.28 C 623.477 -427.304 623.189 -427.24 623.189 -427.24 C 614.595 -426.19 598.808 -418.06 589.694 -415.79 C 567.94 -410.37 528.336 -407.51 509.457 -421.03 C 498.237 -429.06 489.624 -449.02 488.004 -462.5 C 487.742 -464.68 487.831 -466.11 488.689 -468.15 C 489.378 -468.813 491.69 -469.488 495.299 -469.541 C 517.707 -469.868 579.951 -468.654 622.832 -469.61 C 627.75 -469.72 633.419 -475.391 635.579 -477.381 C 636.24 -478.001 636.863 -478.977 637.104 -479.57 C 647.217 -504.454 638.49 -538.7 628.501 -559.69 C 619.714 -578.155 606.537 -590.624 590.809 -598.479 C 573.454 -607.147 552.992 -610.198 531.891 -609.49 C 531.891 -609.49 517.828 -608.691 510.957 -607.265 C 505.401 -606.112 494.712 -602.182 494.712 -602.182 Z" style="fill: rgb(41, 63, 118);"/><path fill="rgb(41,63,118)" d="M 777.133 -609.48 C 823.255 -609.543 879.004 -589.7 877.173 -519.75 C 876.732 -473.95 877.529 -428.13 877.057 -382.35 C 876.896 -366.81 856.369 -368.85 845.359 -369.11 C 823.554 -369.62 826.92 -377.88 827.242 -395.36 C 792.485 -355.38 717.678 -352.99 687.925 -400.4 C 671.921 -425.01 676.727 -468.57 701.057 -486.84 C 734.758 -512.15 777.62 -510.82 817.344 -510.85 C 817.34 -543.65 815.483 -565.52 775.015 -564.64 C 759.067 -564.29 747.089 -561.5 732.115 -555.76 C 723.64 -552.52 709.02 -543.63 700.545 -542.91 C 688.53 -546.86 688.533 -578.15 696.175 -584.76 C 696.175 -584.76 748.917 -609.441 777.133 -609.48 Z M 751.088 -461.147 C 744.036 -455.463 737.965 -445.919 737.886 -437.397 C 737.81 -429.17 741.538 -421.124 748.425 -415.413 C 754.467 -410.403 764.645 -407.148 773.408 -407.23 C 782.325 -407.314 791.971 -411.84 798.669 -416.033 C 804.765 -419.849 810.242 -425.123 817.302 -432.99 C 817.292 -439.355 817.23 -445.865 817.201 -452.37 C 817.173 -458.885 817.178 -465.395 817.302 -471.75 C 807.622 -471.79 796.006 -473.13 785.535 -471.55 C 773.675 -469.76 760.427 -468.674 751.088 -461.147 Z"/><path fill="rgb(41,63,118)" d="M 208.667 -814.62 C 213.858 -812.81 222.802 -806.17 222.802 -806.17 C 222.802 -806.17 180.687 -740.27 162.129 -707.2 C 159.707 -702.89 151.482 -686.852 151.482 -686.852 C 151.482 -686.852 160.49 -690.261 171.311 -691.285 C 180.743 -692.178 191.734 -690.745 197.01 -690.27 C 206.99 -689.33 216.858 -687.44 226.483 -684.64 C 239.823 -680.69 260.951 -672.96 267.842 -660.01 C 273.635 -647.7 271.396 -630.29 268.896 -617.34 C 267.969 -613.02 262.752 -609.7 258.483 -611.91 C 245.601 -618.72 234.612 -627.53 220.689 -632.5 C 178.144 -647.68 131.647 -630.9 117.116 -585.8 C 104.949 -546.77 103.692 -496.65 120.865 -459.09 C 135.71 -426.63 169.19 -415.86 202.244 -419.7 C 219.518 -421.71 228.913 -425.4 243.957 -432.99 C 250.049 -437.14 259.205 -444.19 266.985 -441.62 C 275.392 -435.31 273.453 -402.51 266.944 -394.09 C 255.783 -379.66 230.907 -371.77 213.368 -368.74 C 174.81 -362.09 130.554 -365.64 97.697 -388.61 C 48.549 -421.4 33.927 -492.01 43.012 -547.1 C 43.907 -552.53 65.92 -586.11 70.528 -593.45 L 117.606 -668.92 L 174.964 -761.13 C 185.695 -778.46 208.667 -814.62 208.667 -814.62 M 1064.72 -609.54 C 1116.67 -611.08 1142.17 -577.17 1145.23 -528.66 C 1146.39 -504.8 1145.93 -480.81 1145.99 -456.9 C 1145.86 -431.24 1146.3 -405.68 1145.69 -380.01 C 1145.38 -366.13 1111.3 -369.23 1101.91 -369.7 C 1093.53 -370.12 1084.86 -373.09 1084.82 -383.1 C 1084.66 -424.01 1085.17 -465 1085.01 -505.93 C 1084.92 -529.14 1077.95 -558.72 1048.96 -556.96 C 1029.71 -556 1021.07 -547.07 1008.6 -533.85 L 1000.51 -524.91 L 1000.43 -425.39 C 1000.45 -412.02 1001.6 -398.38 1000.93 -385.12 C 1000.24 -371.03 989.985 -369.4 978.545 -369.48 C 966.978 -369.55 951.238 -366.93 941.883 -375.44 C 939.976 -377.18 940.094 -389.38 939.88 -392.38 C 940.021 -460.3 939.411 -528.31 940.116 -596.2 C 940.266 -610.59 989.125 -610.51 990.855 -596.66 C 991.475 -591.71 990.765 -576.36 990.675 -570.79 C 1012.8 -592 1032.14 -608.62 1064.72 -609.54 M 339.254 -709.59 C 348.132 -710.95 367.894 -709.79 374.231 -701.88 C 375.754 -699.98 376.397 -689.11 376.411 -686 C 376.68 -626.51 376.524 -567.02 376.489 -507.54 L 376.568 -429.13 C 376.584 -414.33 376.837 -399.21 376.196 -384.45 C 375.841 -381.18 376.138 -376.88 373.403 -374.54 C 368.165 -370.06 359.212 -370 352.586 -369.41 C 340.79 -367.65 321.808 -367.92 314.947 -379.14 L 314.928 -592.3 L 314.89 -660.79 C 314.889 -672.26 314.566 -684.14 315.115 -695.56 C 315.681 -707.36 330.687 -708.71 339.254 -709.59 M 166.741 -837.49 C 172.655 -837.61 192.876 -819.34 192.876 -819.34 C 192.876 -819.34 174.423 -788.34 166.166 -774.99 L 118.747 -698.46 L 59.579 -602.65 C 54.274 -594.09 31.777 -555.74 25.61 -551.38 C 19.381 -552.41 1.761 -563.11 0 -569.67 C 1.838 -576.26 23.763 -609.41 29.108 -617.65 C 75.961 -689.88 166.741 -837.49 166.741 -837.49"/><path fill="rgb(87,202,248)" d="M 277.113 -842.32 C 279.87 -834.81 281.292 -828.64 285.61 -821.78 C 292.491 -817.09 297.555 -815.27 305.214 -812.13 C 284.339 -804.01 284.003 -803.6 276.976 -782.3 C 269.671 -803.96 268.971 -805.34 247.214 -812.28 C 269.22 -819.61 269.231 -820.62 277.113 -842.32 M 236.094 -758.39 C 237.461 -756.82 239.283 -750.33 240.733 -747.4 C 245.453 -737.88 251.275 -737.21 260.747 -734.22 C 253.745 -731.71 250.696 -730.52 244.02 -726.89 C 239.684 -720.96 238.608 -716.59 236.552 -709.73 C 235.165 -711.17 232.953 -717.87 231.705 -720.41 C 227.067 -729.9 222.092 -730.69 212.785 -733.76 C 229.468 -741.07 229.95 -740.97 236.094 -758.39"/></g></svg>
